X:116
T: Der junge Held
N: Q0060G
O: Mitteleuropa, Deutschland / Frankreich, Lothringen
R: Ballade, Verfuehrung, Standesunterschied
M: 4/4
L: 1/8
K: D
D2 | A2A2=F2_B2 | A2G2=F2
FF | _B2A2G2=FF | =FED2=C2
C2 | =F2F2GFG2 | A4z2
_B2 | A2D2=F2E2 | D4z2

